flaticon/arrows/download-2.svg

<svg xmlns="http://www.w3.org/2000/svg" width="32" height="32" viewBox="0 0 24 24">
    <path d="M11.6875 20.757812C11.726562 20.800781 11.777344 20.832031 11.832031 20.855469 11.882812 20.875 11.941406 20.890625 12 20.890625 12.058594 20.890625 12.117188 20.875 12.167969 20.855469 12.222656 20.832031 12.273438 20.800781 12.3125 20.757812L19.425781 13.648438C19.597656 13.472656 19.597656 13.191406 19.425781 13.019531 19.25 12.84375 18.96875 12.84375 18.796875 13.019531L12.445312 19.371094 12.445312.445312C12.445312.199219 12.246094 0 12 0 11.753906 0 11.554688.199219 11.554688.445312L11.554688 19.371094 5.203125 13.019531C5.03125 12.84375 4.75 12.84375 4.574219 13.019531 4.402344 13.191406 4.402344 13.472656 4.574219 13.648438zM19.109375 23.109375L4.890625 23.109375C4.644531 23.109375 4.445312 23.308594 4.445312 23.554688 4.445312 23.800781 4.644531 24 4.890625 24L19.109375 24C19.355469 24 19.554688 23.800781 19.554688 23.554688 19.554688 23.308594 19.355469 23.109375 19.109375 23.109375zM19.109375 23.109375"/>
</svg>

<svg xmlns="http://www.w3.org/2000/svg" width="32" height="32" viewBox="0 0 24 24">
    <path d="M11.688 20.758c.039.043.09.074.144.097.05.02.11.036.168.036a.478.478 0 0 0 .168-.036.411.411 0 0 0 .145-.097l7.113-7.11a.448.448 0 0 0 0-.628.44.44 0 0 0-.63 0l-6.35 6.351V.445a.445.445 0 1 0-.891 0v18.926L5.203 13.02a.44.44 0 0 0-.629 0 .448.448 0 0 0 0 .628zm0 0M19.11 23.11H4.89a.445.445 0 1 0 0 .89h14.22a.445.445 0 1 0 0-.89zm0 0"/>
</svg>
